; generated by PrusaSlicer 2.7.1+MacOS-arm64 on 2024-02-23 at 21:30:17 UTC

; 

; external perimeters extrusion width = 0.90mm
; perimeters extrusion width = 0.90mm
; infill extrusion width = 0.90mm
; solid infill extrusion width = 0.90mm
; top infill extrusion width = 0.80mm
; support material extrusion width = 0.90mm
; first layer extrusion width = 0.84mm

M201 X500 Y500 Z100 E5000 ; sets maximum accelerations, mm/sec^2
M203 X500 Y500 Z10 E60 ; sets maximum feedrates, mm / sec
M204 S500 T1000 ; sets acceleration (S) and retract acceleration (R), mm/sec^2
M205 X8.00 Y8.00 Z0.40 E5.00 ; sets the jerk limits, mm/sec
M205 S0 T0 ; sets the minimum extruding and travel feed rate, mm/sec
;TYPE:Custom
G90 ; use absolute coordinates
M83 ; extruder relative mode
M104 S210 ; set extruder temp
M140 S60 ; set bed temp
M190 S60 ; wait for bed temp
M109 S210 ; wait for extruder temp
G28 ; home all
G1 Z2 F240
G1 X2 Y10 F3000
G1 Z0.28 F240
G92 E0
G1 Y190 E15 F1500 ; intro line
G1 X2.3 F5000
G92 E0
G1 Y10 E15 F1200 ; intro line
G92 E0
G21 ; set units to millimeters
G90 ; use absolute coordinates
M83 ; use relative distances for extrusion
; Filament gcode
M107
;LAYER_CHANGE
;Z:0.32
;HEIGHT:0.32
;BEFORE_LAYER_CHANGE
G92 E0
;0.32


G1 E-5 F3600
G1 Z.32 F9000
;AFTER_LAYER_CHANGE
;0.32
G1 X129.744 Y90
G1 Z.32
G1 E5 F2400
;TYPE:Support material
;WIDTH:0.84
G1 F1200
G1 X132.558 Y90 E.25989
G1 X132.558 Y92.814 E.25989
G1 X138.186 Y92.814 E.51978
G1 X138.186 Y98.442 E.51978
G1 X141 Y98.442 E.25989
G1 X141 Y101.256 E.25989
G1 X143.814 Y101.256 E.25989
G1 X143.814 Y129.744 E2.63104
G1 X141 Y129.744 E.25989
G1 X141 Y132.558 E.25989
G1 X138.186 Y132.558 E.25989
G1 X138.186 Y138.186 E.51978
G1 X132.558 Y138.186 E.51978
G1 X132.558 Y141 E.25989
G1 X129.744 Y141 E.25989
G1 X129.744 Y143.814 E.25989
G1 X101.256 Y143.814 E2.63104
G1 X101.256 Y141 E.25989
G1 X98.442 Y141 E.25989
G1 X98.442 Y138.186 E.25989
G1 X92.814 Y138.186 E.51978
G1 X92.814 Y132.558 E.51978
G1 X90 Y132.558 E.25989
G1 X90 Y129.744 E.25989
G1 X87.186 Y129.744 E.25989
G1 X87.186 Y101.256 E2.63104
G1 X90 Y101.256 E.25989
G1 X90 Y98.442 E.25989
G1 X92.814 Y98.442 E.25989
G1 X92.814 Y92.814 E.51978
G1 X98.442 Y92.814 E.51978
G1 X98.442 Y90 E.25989
G1 X101.256 Y90 E.25989
G1 X101.256 Y87.186 E.25989
G1 X129.744 Y87.186 E2.63104
G1 X129.744 Y89.884 E.24918
G1 X114.029 Y91.634 F9000
G1 F1200
G1 X117.032 Y91.637 E.27735
G1 X119.951 Y92.006 E.27173
G1 X122.918 Y92.768 E.28291
G1 X125.654 Y93.851 E.27176
G1 X128.287 Y95.295 E.27734
G1 X130.765 Y97.095 E.28286
G1 X132.91 Y99.109 E.27174
G1 X134.827 Y101.421 E.27738
G1 X136.468 Y104.007 E.28286
G1 X137.744 Y106.726 E.27739
G1 X138.653 Y109.524 E.27171
G1 X139.227 Y112.533 E.28291
G1 X139.412 Y115.47 E.27179
G1 X139.227 Y118.467 E.27732
G1 X138.653 Y121.476 E.28291
G1 X137.744 Y124.274 E.27171
G1 X136.468 Y126.993 E.27739
G1 X134.827 Y129.579 E.28286
G1 X132.951 Y131.847 E.27183
G1 X130.765 Y133.905 E.27728
G1 X128.287 Y135.705 E.28286
G1 X125.708 Y137.123 E.27182
G1 X122.918 Y138.232 E.27728
G1 X120.01 Y138.982 E.27736
G1 X117.032 Y139.363 E.27728
G1 X113.968 Y139.363 E.28298
G1 X111.049 Y138.994 E.27173
G1 X108.14 Y138.251 E.27729
G1 X105.292 Y137.123 E.28291
G1 X102.662 Y135.673 E.27737
G1 X100.281 Y133.943 E.27182
G1 X98.09 Y131.891 E.27724
G1 X96.173 Y129.579 E.27738
G1 X94.532 Y126.993 E.28286
G1 X93.279 Y124.331 E.27173
G1 X92.347 Y121.476 E.27737
G1 X91.773 Y118.467 E.28291
G1 X91.588 Y115.53 E.27179
G1 X91.773 Y112.533 E.27732
G1 X92.347 Y109.524 E.28291
G1 X93.256 Y106.726 E.27171
G1 X94.532 Y104.007 E.27739
G1 X96.173 Y101.421 E.28286
G1 X98.049 Y99.153 E.27183
G1 X100.235 Y97.095 E.27728
G1 X102.713 Y95.295 E.28286
G1 X105.292 Y93.877 E.27182
G1 X108.082 Y92.768 E.27728
G1 X110.99 Y92.018 E.27736
G1 X113.914 Y91.644 E.27225
G1 E-3.5 F3600
;WIPE_START
G1 F7200
G1 X110.99 Y92.018 E-1.40022
G1 X110.787 Y92.07 E-.09978
;WIPE_END
G1 X142.925 Y129.397 F9000
G1 E5 F2400
G1 F1200
G1 X142.925 Y101.951 E2.5348
G1 X142.068 Y101.951 E.07915
G1 X142.068 Y129.049 E2.50266
G1 X141.211 Y129.049 E.07915
G1 X141.211 Y101.951 E2.50266
G1 X140.354 Y101.951 E.07915
G1 X140.306 Y131.864 E2.76265
G1 X139.497 Y131.864 E.07472
G1 X139.497 Y120.777 E1.02395
G1 X139.32 Y121.67 E.08408
G1 X138.64 Y123.763 E.20325
G1 X138.64 Y131.864 E.74818
G1 X137.783 Y131.864 E.07915
G1 X137.783 Y125.83 E.55728
G1 X136.926 Y127.575 E.17955
G1 X136.926 Y137.492 E.91589
G1 X136.069 Y137.492 E.07915
G1 X136.069 Y128.926 E.79112
G1 X135.212 Y130.204 E.14211
G1 X135.212 Y137.492 E.67309
G1 X134.355 Y137.492 E.07915
G1 X134.355 Y131.24 E.57741
G1 X133.498 Y132.276 E.12417
G1 X133.498 Y137.492 E.48173
G1 X132.641 Y137.492 E.07915
G1 X132.641 Y133.096 E.406
G1 X131.784 Y133.901 E.10859
G1 X131.784 Y140.306 E.59154
G1 X130.927 Y140.306 E.07915
G1 X130.927 Y134.65 E.52237
G1 X130.07 Y135.273 E.09785
G1 X130.07 Y140.306 E.46483
G1 X129.212 Y140.306 E.07924
G1 X129.212 Y135.896 E.40729
G1 X128.355 Y136.46 E.09475
G1 X128.355 Y143.12 E.61509
G1 X127.498 Y143.12 E.07915
G1 X127.498 Y136.931 E.57159
G1 X126.641 Y137.402 E.09032
G1 X126.641 Y143.12 E.52809
G1 X125.784 Y143.12 E.07915
G1 X125.784 Y137.844 E.48727
G1 X124.927 Y138.183 E.08512
G1 X124.927 Y143.12 E.45596
G1 X124.07 Y143.12 E.07915
G1 X124.07 Y138.522 E.42465
G1 X123.213 Y138.862 E.08515
G1 X123.213 Y143.12 E.39325
G1 X122.356 Y143.12 E.07915
G1 X122.356 Y139.097 E.37155
G1 X121.499 Y139.317 E.08172
G1 X121.499 Y143.12 E.35123
G1 X120.642 Y143.12 E.07915
G1 X120.642 Y139.537 E.33091
G1 X119.785 Y139.714 E.08082
G1 X119.785 Y143.12 E.31456
G1 X118.928 Y143.12 E.07915
G1 X118.928 Y139.823 E.3045
G1 X118.071 Y139.931 E.07978
G1 X118.071 Y143.12 E.29452
G1 X117.214 Y143.12 E.07915
G1 X117.214 Y140.039 E.28455
G1 X116.357 Y140.061 E.07918
G1 X116.357 Y143.12 E.28252
G1 X115.5 Y143.12 E.07915
G1 X115.5 Y140.061 E.28252
G1 X114.643 Y140.061 E.07915
G1 X114.643 Y143.12 E.28252
G1 X113.786 Y143.12 E.07915
G1 X113.786 Y140.039 E.28455
G1 X112.929 Y139.931 E.07978
G1 X112.929 Y143.12 E.29452
G1 X112.072 Y143.12 E.07915
G1 X112.072 Y139.823 E.3045
G1 X111.215 Y139.714 E.07979
G1 X111.215 Y143.12 E.31456
G1 X110.358 Y143.12 E.07915
G1 X110.358 Y139.537 E.33091
G1 X109.501 Y139.317 E.08172
G1 X109.501 Y143.12 E.35123
G1 X108.644 Y143.12 E.07915
G1 X108.644 Y139.097 E.37155
G1 X107.787 Y138.862 E.08207
G1 X107.787 Y143.12 E.39325
G1 X106.93 Y143.12 E.07915
G1 X106.93 Y138.522 E.42465
G1 X106.073 Y138.183 E.08512
G1 X106.073 Y143.12 E.45596
G1 X105.216 Y143.12 E.07915
G1 X105.216 Y137.844 E.48727
G1 X104.359 Y137.402 E.08906
G1 X104.359 Y143.12 E.52809
G1 X103.502 Y143.12 E.07915
G1 X103.502 Y136.931 E.57159
G1 X102.645 Y136.46 E.09032
G1 X102.645 Y143.12 E.61509
G1 X101.951 Y143.12 E.0641
G1 X101.951 Y140.306 E.25989
G1 X101.788 Y140.306 E.01505
G1 X101.788 Y135.896 E.40729
G1 X100.93 Y135.273 E.09793
G1 X100.93 Y140.306 E.46483
G1 X100.073 Y140.306 E.07915
G1 X100.073 Y134.65 E.52237
G1 X99.216 Y133.901 E.10512
G1 X99.216 Y140.306 E.59154
G1 X99.136 Y140.306 E.00739
G1 X99.136 Y137.492 E.25989
G1 X98.359 Y137.492 E.07176
G1 X98.359 Y133.096 E.406
G1 X97.502 Y132.276 E.10954
G1 X97.502 Y137.492 E.48173
G1 X96.645 Y137.492 E.07915
G1 X96.645 Y131.24 E.57741
G1 X95.788 Y130.204 E.12417
G1 X95.788 Y137.492 E.67309
G1 X94.931 Y137.492 E.07915
G1 X94.931 Y128.926 E.79112
G1 X94.074 Y127.575 E.14776
G1 X94.074 Y137.492 E.91589
G1 X93.508 Y137.492 E.05227
G1 X93.508 Y131.864 E.51978
G1 X93.217 Y131.864 E.02688
G1 X93.217 Y125.83 E.55728
G1 X92.641 Y124.606 E.12494
G1 X92.36 Y123.763 E.08207
G1 X92.36 Y131.864 E.74818
G1 X91.503 Y131.864 E.07915
G1 X91.503 Y120.777 E1.02395
G1 X91.082 Y118.532 E.21095
G1 X90.894 Y115.448 E.28535
G1 X91.082 Y112.468 E.27577
G1 X91.503 Y110.223 E.21095
G1 X91.503 Y99.136 E1.02395
G1 X92.36 Y99.136 E.07915
G1 X92.36 Y107.237 E.74818
G1 X92.641 Y106.394 E.08207
G1 X93.217 Y105.17 E.12494
G1 X93.217 Y99.136 E.55728
G1 X93.508 Y99.136 E.02688
G1 X93.508 Y93.508 E.51978
G1 X94.074 Y93.508 E.05227
G1 X94.074 Y103.425 E.91589
G1 X94.931 Y102.074 E.14776
G1 X94.931 Y93.508 E.79112
G1 X95.788 Y93.508 E.07915
G1 X95.788 Y100.796 E.67309
G1 X96.645 Y99.76 E.12417
G1 X96.645 Y93.508 E.57741
G1 X97.502 Y93.508 E.07915
G1 X97.502 Y98.724 E.48173
G1 X98.359 Y97.904 E.10954
G1 X98.359 Y93.508 E.406
G1 X99.136 Y93.508 E.07176
G1 X99.136 Y90.694 E.25989
G1 X99.216 Y90.694 E.00739
G1 X99.216 Y97.099 E.59154
G1 X100.073 Y96.35 E.10512
G1 X100.073 Y90.694 E.52237
G1 X100.93 Y90.694 E.07915
G1 X100.93 Y95.727 E.46483
G1 X101.788 Y95.104 E.09793
G1 X101.788 Y90.694 E.40729
G1 X101.951 Y90.694 E.01505
G1 X101.951 Y87.88 E.25989
G1 X102.645 Y87.88 E.0641
G1 X102.645 Y94.54 E.61509
G1 X103.502 Y94.069 E.09032
G1 X103.502 Y87.88 E.57159
G1 X104.359 Y87.88 E.07915
G1 X104.359 Y93.598 E.52809
G1 X105.216 Y93.156 E.08906
G1 X105.216 Y87.88 E.48727
G1 X106.073 Y87.88 E.07915
G1 X106.073 Y92.817 E.45596
G1 X106.93 Y92.478 E.08512
G1 X106.93 Y87.88 E.42465
G1 X107.787 Y87.88 E.07915
G1 X107.787 Y92.138 E.39325
G1 X108.644 Y91.903 E.08207
G1 X108.644 Y87.88 E.37155
G1 X109.501 Y87.88 E.07915
G1 X109.501 Y91.683 E.35123
G1 X110.358 Y91.463 E.08172
G1 X110.358 Y87.88 E.33091
G1 X111.215 Y87.88 E.07915
G1 X111.215 Y91.286 E.31456
G1 X112.072 Y91.177 E.07979
G1 X112.072 Y87.88 E.3045
G1 X112.929 Y87.88 E.07915
G1 X112.929 Y91.069 E.29452
G1 X113.786 Y90.961 E.07978
G1 X113.786 Y87.88 E.28455
G1 X114.643 Y87.88 E.07915
G1 X114.643 Y90.939 E.28252
G1 X115.5 Y90.939 E.07915
G1 X115.5 Y87.88 E.28252
G1 X116.357 Y87.88 E.07915
G1 X116.357 Y90.939 E.28252
G1 X117.214 Y90.961 E.07918
G1 X117.214 Y87.88 E.28455
G1 X118.071 Y87.88 E.07915
G1 X118.071 Y91.069 E.29452
G1 X118.928 Y91.177 E.07978
G1 X118.928 Y87.88 E.3045
G1 X119.785 Y87.88 E.07915
G1 X119.785 Y91.286 E.31456
G1 X120.642 Y91.463 E.08082
G1 X120.642 Y87.88 E.33091
G1 X121.499 Y87.88 E.07915
G1 X121.499 Y91.683 E.35123
G1 X122.356 Y91.903 E.08172
G1 X122.356 Y87.88 E.37155
G1 X123.213 Y87.88 E.07915
G1 X123.213 Y92.138 E.39325
G1 X124.07 Y92.478 E.08515
G1 X124.07 Y87.88 E.42465
G1 X124.927 Y87.88 E.07915
G1 X124.927 Y92.817 E.45596
G1 X125.784 Y93.156 E.08512
G1 X125.784 Y87.88 E.48727
G1 X126.641 Y87.88 E.07915
G1 X126.641 Y93.598 E.52809
G1 X127.498 Y94.069 E.09032
G1 X127.498 Y87.88 E.57159
G1 X128.355 Y87.88 E.07915
G1 X128.355 Y94.54 E.61509
G1 X129.212 Y95.104 E.09475
G1 X129.212 Y90.694 E.40729
G1 X130.07 Y90.694 E.07924
G1 X130.07 Y95.727 E.46483
G1 X130.927 Y96.35 E.09785
G1 X130.927 Y90.694 E.52237
G1 X131.784 Y90.694 E.07915
G1 X131.784 Y97.099 E.59154
G1 X132.641 Y97.904 E.10859
G1 X132.641 Y93.508 E.406
G1 X133.498 Y93.508 E.07915
G1 X133.498 Y98.724 E.48173
G1 X134.355 Y99.76 E.12417
G1 X134.355 Y93.508 E.57741
G1 X135.212 Y93.508 E.07915
G1 X135.212 Y100.796 E.67309
G1 X136.069 Y102.074 E.14211
G1 X136.069 Y93.508 E.79112
G1 X136.926 Y93.508 E.07915
G1 X136.926 Y103.425 E.91589
G1 X137.783 Y105.17 E.17955
G1 X137.783 Y99.136 E.55728
G1 X138.64 Y99.136 E.07915
G1 X138.64 Y107.237 E.74818
G1 X139.32 Y109.33 E.20325
G1 X139.497 Y110.223 E.08408
G1 X139.497 Y98.789 E1.056
G1 E-3.5 F3600
;WIPE_START
G1 F7200
G1 X139.497 Y101.947 E-1.5
;WIPE_END
G1 X90.646 Y132.211 F9000
G1 E5 F2400
G1 F1200
G1 X90.646 Y101.951 E2.79469
G1 X89.789 Y101.951 E.07915
G1 X89.789 Y129.049 E2.50266
G1 X88.932 Y129.049 E.07915
G1 X88.932 Y101.951 E2.50266
G1 X88.075 Y101.951 E.07915
G1 X88.075 Y129.397 E2.5348
G1 E-3.5 F3600
;WIPE_START
G1 F7200
G1 X88.075 Y126.239 E-1.5
;WIPE_END
G1 X96.785 Y125.789 F9000
G1 E5 F2400
;TYPE:Perimeter
;WIDTH:0.84
G1 F1200
G1 X95.643 Y123.362 E.24772
G1 X94.814 Y120.811 E.24773
G1 X94.311 Y118.177 E.24766
G1 X94.143 Y115.5 E.24772
G1 X94.311 Y112.823 E.24772
G1 X94.814 Y110.189 E.24766
G1 X95.643 Y107.638 E.24773
G1 X96.785 Y105.211 E.24772
G1 X98.222 Y102.947 E.24766
G1 X99.931 Y100.88 E.2477
G1 X101.886 Y99.044 E.2477
G1 X104.056 Y97.468 E.24769
G1 X106.407 Y96.175 E.2478
G1 X108.9 Y95.188 E.24763
G1 X111.498 Y94.521 E.24772
G1 X114.159 Y94.185 E.24771
G1 X116.841 Y94.185 E.2477
G1 X119.502 Y94.521 E.24771
G1 X122.1 Y95.188 E.24772
G1 X124.593 Y96.175 E.24763
G1 X126.944 Y97.468 E.2478
G1 X129.114 Y99.044 E.24769
G1 X131.069 Y100.88 E.2477
G1 X132.778 Y102.947 E.2477
G1 X134.215 Y105.211 E.24766
G1 X135.357 Y107.638 E.24772
G1 X136.186 Y110.189 E.24773
G1 X136.689 Y112.823 E.24766
G1 X136.857 Y115.5 E.24772
G1 X136.773 Y116.838 E.12382
G1 X136.689 Y118.177 E.12391
G1 X136.186 Y120.811 E.24766
G1 X135.357 Y123.362 E.24773
G1 X134.215 Y125.789 E.24772
G1 X132.778 Y128.053 E.24766
G1 X131.069 Y130.12 E.2477
G1 X129.114 Y131.956 E.2477
G1 X126.944 Y133.532 E.24769
G1 X124.593 Y134.825 E.2478
G1 X122.1 Y135.812 E.24763
G1 X119.502 Y136.479 E.24772
G1 X116.841 Y136.815 E.24771
G1 X114.159 Y136.815 E.2477
G1 X111.498 Y136.479 E.24771
G1 X108.9 Y135.812 E.24772
G1 X106.407 Y134.825 E.24763
G1 X104.056 Y133.532 E.2478
G1 X101.886 Y131.956 E.24769
G1 X99.931 Y130.12 E.2477
G1 X98.222 Y128.053 E.2477
G1 X96.849 Y125.89 E.23661
G1 X96.107 Y126.161 F9000
;TYPE:External perimeter
G1 F1200
G1 X94.924 Y123.647 E.2566
G1 X94.065 Y121.004 E.25667
G1 X93.544 Y118.274 E.25668
G1 X93.37 Y115.5 E.2567
G1 X93.544 Y112.726 E.2567
G1 X94.065 Y109.996 E.25668
G1 X94.924 Y107.353 E.25667
G1 X96.107 Y104.839 E.2566
G1 X97.596 Y102.492 E.2567
G1 X99.368 Y100.351 E.25667
G1 X101.394 Y98.449 E.25665
G1 X103.642 Y96.815 E.25667
G1 X106.077 Y95.476 E.25665
G1 X108.661 Y94.453 E.25667
G1 X111.353 Y93.762 E.25668
G1 X114.11 Y93.414 E.25665
G1 X116.89 Y93.414 E.25675
G1 X119.647 Y93.762 E.25665
G1 X122.339 Y94.453 E.25668
G1 X124.923 Y95.476 E.25667
G1 X127.358 Y96.815 E.25665
G1 X129.606 Y98.449 E.25667
G1 X131.632 Y100.351 E.25665
G1 X133.404 Y102.492 E.25667
G1 X134.893 Y104.839 E.2567
G1 X136.076 Y107.353 E.2566
G1 X136.935 Y109.996 E.25667
G1 X137.456 Y112.726 E.25668
G1 X137.63 Y115.5 E.2567
G1 X137.543 Y116.887 E.12835
G1 X137.456 Y118.274 E.12835
G1 X136.935 Y121.004 E.25668
G1 X136.076 Y123.647 E.25667
G1 X134.893 Y126.161 E.2566
G1 X133.404 Y128.508 E.2567
G1 X131.632 Y130.649 E.25667
G1 X129.606 Y132.551 E.25665
G1 X127.358 Y134.185 E.25667
G1 X124.923 Y135.524 E.25665
G1 X122.339 Y136.547 E.25667
G1 X119.647 Y137.238 E.25668
G1 X116.89 Y137.586 E.25665
G1 X114.11 Y137.586 E.25675
G1 X111.353 Y137.238 E.25665
G1 X108.661 Y136.547 E.25668
G1 X106.077 Y135.524 E.25667
G1 X103.642 Y134.185 E.25665
G1 X101.394 Y132.551 E.25667
G1 X99.368 Y130.649 E.25665
G1 X97.596 Y128.508 E.25667
G1 X96.172 Y126.263 E.24553
G1 E-3.5 F3600
;WIPE_START
G1 F7200
G1 X96.107 Y126.161 E-.05745
G1 X94.924 Y123.647 E-1.31976
G1 X94.844 Y123.401 E-.12279
;WIPE_END
G1 X132.845 Y103.483 F9000
G1 E5 F2400
;TYPE:Solid infill
;WIDTH:0.852136
G1 F1196.61
G1 X130.517 Y101.156 E.30878
G1 X128.744 Y99.491 E.22817
G1 X126.633 Y97.957 E.24479
G1 X125.694 Y97.441 E.10051
G1 X133.644 Y105.391 E1.0547
G1 X133.708 Y105.49 E.01106
G1 X134.66 Y107.514 E.20982
G1 X123.517 Y96.371 E1.4783
G1 X121.921 Y95.739 E.16103
G1 X121.727 Y95.69 E.01877
G1 X135.266 Y109.228 E1.7961
G1 X135.625 Y110.333 E.10899
G1 X135.71 Y110.781 E.04278
G1 X120.237 Y95.307 E2.05281
G1 X119.393 Y95.09 E.08175
G1 X118.843 Y95.021 E.052
G1 X135.971 Y112.15 E2.27237
G1 X136.114 Y112.896 E.07126
G1 X136.148 Y113.434 E.05057
G1 X117.574 Y94.861 E2.46407
G1 X116.805 Y94.763 E.07272
G1 X116.369 Y94.763 E.0409
G1 X136.222 Y114.616 E2.63382
G1 X136.278 Y115.5 E.08309
G1 X136.261 Y115.763 E.02472
G1 X115.261 Y94.763 E2.78599
G1 X114.158 Y94.768 E.10347
G1 X136.195 Y116.806 E2.92363
G1 X136.13 Y117.848 E.09794
G1 X113.174 Y94.892 E3.04548
G1 X112.19 Y95.017 E.09305
G1 X135.98 Y118.806 E3.15606
G1 X135.802 Y119.737 E.08892
G1 X111.248 Y95.183 E3.25748
G1 X110.367 Y95.409 E.08532
G1 X135.625 Y120.667 E3.35088
G1 X135.353 Y121.503 E.08247
G1 X109.485 Y95.635 E3.43181
G1 X109.079 Y95.739 E.03932
G1 X108.651 Y95.909 E.0432
G1 X135.081 Y122.34 E3.50643
G1 X134.807 Y123.173 E.08226
G1 X107.857 Y96.223 E3.57535
G1 X107.063 Y96.538 E.08013
G1 X134.452 Y123.927 E3.63359
G1 X134.098 Y124.68 E.07805
G1 X106.308 Y96.89 E3.68679
G1 X105.593 Y97.283 E.07654
