; generated by PrusaSlicer 2.7.1+MacOS-arm64 on 2024-02-24 at 21:40:02 UTC

; 

; external perimeters extrusion width = 0.90mm
; perimeters extrusion width = 0.90mm
; infill extrusion width = 0.90mm
; solid infill extrusion width = 0.90mm
; top infill extrusion width = 0.80mm
; support material extrusion width = 0.90mm
; first layer extrusion width = 0.84mm

M201 X500 Y500 Z100 E5000 ; sets maximum accelerations, mm/sec^2
M203 X500 Y500 Z10 E60 ; sets maximum feedrates, mm / sec
M204 S500 T1000 ; sets acceleration (S) and retract acceleration (R), mm/sec^2
M205 X8.00 Y8.00 Z0.40 E5.00 ; sets the jerk limits, mm/sec
M205 S0 T0 ; sets the minimum extruding and travel feed rate, mm/sec
;TYPE:Custom
G90 ; use absolute coordinates
M83 ; extruder relative mode
M104 S210 ; set extruder temp
M140 S60 ; set bed temp
M190 S60 ; wait for bed temp
M109 S210 ; wait for extruder temp
G28 ; home all
G1 Z2 F240
G1 X2 Y10 F3000
G1 Z0.28 F240
G92 E0
G1 Y190 E15 F1500 ; intro line
G1 X2.3 F5000
G92 E0
G1 Y10 E15 F1200 ; intro line
G92 E0
G21 ; set units to millimeters
G90 ; use absolute coordinates
M83 ; use relative distances for extrusion
; Filament gcode
M107
;LAYER_CHANGE
;Z:0.32
;HEIGHT:0.32
;BEFORE_LAYER_CHANGE
G92 E0
;0.32


G1 E-5 F3600
G1 Z.32 F9000
;AFTER_LAYER_CHANGE
;0.32
G1 X85.379 Y67.178
G1 Z.32
G1 E5 F2400
;TYPE:Perimeter
;WIDTH:0.84
G1 F1200
G1 X85.854 Y67.091 E.0446
G1 X145.002 Y67.093 E5.46267
G1 X145.435 Y67.126 E.04011
G1 X145.99 Y67.3 E.05372
G1 X146.488 Y67.6 E.05369
G1 X146.9 Y68.012 E.05381
G1 X147.2 Y68.51 E.05369
G1 X147.374 Y69.065 E.05372
G1 X147.409 Y69.5 E.0403
G1 X147.409 Y161.646 E8.51023
G1 X147.304 Y162.218 E.05371
G1 X147.065 Y162.748 E.0537
G1 X146.706 Y163.206 E.05374
G1 X146.248 Y163.565 E.05374
G1 X145.718 Y163.804 E.0537
G1 X145.146 Y163.909 E.05371
G1 X85.854 Y163.909 E5.47597
G1 X85.282 Y163.804 E.05371
G1 X84.752 Y163.565 E.0537
G1 X84.294 Y163.206 E.05374
G1 X83.935 Y162.748 E.05374
G1 X83.696 Y162.218 E.0537
G1 X83.591 Y161.646 E.05371
G1 X83.591 Y69.354 E8.52372
G1 X83.696 Y68.782 E.05371
G1 X83.935 Y68.252 E.0537
G1 X84.294 Y67.794 E.05374
G1 X84.752 Y67.435 E.05374
G1 X85.263 Y67.205 E.05175
G1 X85.239 Y66.412 F9000
;TYPE:External perimeter
G1 F1200
G1 X85.808 Y66.32 E.05323
G1 X145.002 Y66.322 E5.46692
G1 X145.39 Y66.344 E.03589
G1 X145.948 Y66.458 E.0526
G1 X146.478 Y66.685 E.05325
G1 X146.965 Y66.992 E.05317
G1 X147.38 Y67.391 E.05317
G1 X147.726 Y67.852 E.05323
G1 X147.973 Y68.373 E.05325
G1 X148.134 Y68.926 E.05319
G1 X148.18 Y69.5 E.05318
G1 X148.18 Y161.692 E8.51448
G1 X148.088 Y162.261 E.05323
G1 X147.905 Y162.808 E.05327
G1 X147.617 Y163.306 E.05313
G1 X147.253 Y163.753 E.05324
G1 X146.806 Y164.117 E.05324
G1 X146.308 Y164.405 E.05313
G1 X145.761 Y164.588 E.05327
G1 X145.192 Y164.68 E.05323
G1 X85.808 Y164.68 E5.48447
G1 X85.239 Y164.588 E.05323
G1 X84.692 Y164.405 E.05327
G1 X84.194 Y164.117 E.05313
G1 X83.747 Y163.753 E.05324
G1 X83.383 Y163.306 E.05324
G1 X83.095 Y162.808 E.05313
G1 X82.912 Y162.261 E.05327
G1 X82.82 Y161.692 E.05323
G1 X82.82 Y69.308 E8.53222
G1 X82.912 Y68.739 E.05323
G1 X83.095 Y68.192 E.05327
G1 X83.383 Y67.694 E.05313
G1 X83.747 Y67.247 E.05324
G1 X84.194 Y66.883 E.05324
G1 X84.692 Y66.595 E.05313
G1 X85.125 Y66.45 E.04217
G1 E-3.5 F3600
;WIPE_START
G1 F7200
G1 X85.239 Y66.412 E-.05708
G1 X85.808 Y66.32 E-.27379
G1 X88.269 Y66.32 E-1.16913
;WIPE_END
G1 X106.927 Y85.947 F9000
G1 E5 F2400
;TYPE:Perimeter
G1 F1200
G1 X106.965 Y85.708 E.02235
G1 X107.122 Y85.396 E.03226
G1 X107.398 Y85.121 E.03598
G1 X107.468 Y85.075 E.00774
G1 X107.794 Y84.941 E.03255
G1 X108.066 Y84.909 E.02529
G1 X122.934 Y84.909 E1.37315
G1 X123.293 Y84.966 E.03357
G1 X123.602 Y85.121 E.03193
G1 X123.878 Y85.396 E.03598
G1 X124.035 Y85.708 E.03226
G1 X124.091 Y86.066 E.03347
G1 X124.091 Y100.934 E1.37315
G1 X124.032 Y101.301 E.03433
G1 X123.829 Y101.669 E.03882
G1 X123.562 Y101.906 E.03297
G1 X123.215 Y102.057 E.03495
G1 X122.934 Y102.091 E.02614
G1 X108.066 Y102.091 E1.37315
G1 X107.673 Y102.023 E.03684
G1 X107.36 Y101.851 E.03298
G1 X107.091 Y101.558 E.03674
G1 X106.947 Y101.23 E.03308
G1 X106.909 Y100.934 E.02756
G1 X106.909 Y86.066 E1.37315
G1 X107.68 Y86.066 F9000
;TYPE:External perimeter
G1 F1200
G1 X107.751 Y85.842 E.0217
G1 X107.867 Y85.735 E.01457
G1 X108.066 Y85.68 E.01907
G1 X122.934 Y85.68 E1.37315
G1 X123.157 Y85.751 E.02161
G1 X123.293 Y85.924 E.02032
G1 X123.32 Y86.066 E.01335
G1 X123.32 Y100.934 E1.37315
G1 X123.259 Y101.142 E.02002
G1 X123.086 Y101.289 E.02097
G1 X122.934 Y101.32 E.01433
G1 X108.066 Y101.32 E1.37315
G1 X107.849 Y101.253 E.02097
G1 X107.708 Y101.079 E.02068
G1 X107.68 Y100.934 E.01364
G1 X107.68 Y86.186 E1.36207
G1 E-3.5 F3600
;WIPE_START
G1 F7200
G1 X107.68 Y86.066 E-.057
G1 X107.751 Y85.842 E-.11162
G1 X107.867 Y85.735 E-.07496
G1 X108.066 Y85.68 E-.09807
G1 X110.505 Y85.68 E-1.15835
;WIPE_END
G1 X145.071 Y139.558 F9000
G1 E5 F2400
;TYPE:Perimeter
G1 F1200
G1 X145.029 Y139.81 E.02359
G1 X144.86 Y140.129 E.03334
G1 X144.629 Y140.36 E.03017
G1 X144.379 Y140.502 E.02655
G1 X143.934 Y140.591 E.04191
G1 X129.066 Y140.591 E1.37315
G1 X128.69 Y140.529 E.03519
G1 X128.371 Y140.36 E.03334
G1 X128.14 Y140.129 E.03017
G1 X127.982 Y139.841 E.03034
G1 X127.909 Y139.434 E.03819
G1 X127.909 Y124.566 E1.37315
G1 X127.955 Y124.242 E.03022
G1 X128.066 Y123.984 E.02594
G1 X128.312 Y123.688 E.03555
G1 X128.653 Y123.485 E.03665
G1 X128.884 Y123.423 E.02209
G1 X129.906 Y123.409 E.0944
G1 X143.934 Y123.409 E1.29557
G1 X144.379 Y123.498 E.04191
G1 X144.629 Y123.64 E.02655
G1 X144.86 Y123.871 E.03017
G1 X145.029 Y124.19 E.03334
G1 X145.091 Y124.566 E.03519
G1 X145.091 Y139.434 E1.37315
G1 X145.09 Y139.44 E.00056
G1 X144.32 Y139.434 F9000
;TYPE:External perimeter
G1 F1200
G1 X144.243 Y139.666 E.02258
G1 X144.083 Y139.79 E.0187
G1 X143.934 Y139.82 E.01404
G1 X129.066 Y139.82 E1.37315
G1 X128.834 Y139.743 E.02258
G1 X128.705 Y139.57 E.01993
G1 X128.68 Y139.434 E.01277
G1 X128.68 Y124.566 E1.37315
G1 X128.732 Y124.372 E.01855
G1 X128.913 Y124.211 E.02237
G1 X129.005 Y124.185 E.00883
G1 X143.934 Y124.18 E1.37878
G1 X144.166 Y124.257 E.02258
G1 X144.299 Y124.441 E.02097
G1 X144.32 Y124.566 E.01171
G1 X144.32 Y139.314 E1.36207
G1 E-3.5 F3600
;WIPE_START
G1 F7200
G1 X144.32 Y139.434 E-.057
G1 X144.243 Y139.666 E-.11611
G1 X144.083 Y139.79 E-.09615
G1 X143.934 Y139.82 E-.0722
G1 X141.495 Y139.82 E-1.15854
;WIPE_END
G1 X125.076 Y124.46 F9000
G1 E5 F2400
;TYPE:Perimeter
G1 F1200
G1 X125.091 Y124.566 E.00989
G1 X125.091 Y139.434 E1.37315
G1 X125.018 Y139.841 E.03819
G1 X124.86 Y140.129 E.03034
G1 X124.629 Y140.36 E.03017
G1 X124.31 Y140.529 E.03334
G1 X123.934 Y140.591 E.03519
G1 X109.066 Y140.591 E1.37315
G1 X108.765 Y140.552 E.02803
G1 X108.485 Y140.435 E.02803
G1 X108.14 Y140.129 E.04259
G1 X107.982 Y139.841 E.03034
G1 X107.909 Y139.434 E.03819
G1 X107.909 Y124.566 E1.37315
G1 X107.953 Y124.248 E.02965
G1 X108.061 Y123.992 E.02566
G1 X108.304 Y123.695 E.03544
G1 X108.646 Y123.487 E.03697
G1 X108.968 Y123.413 E.03051
G1 X109.066 Y123.409 E.00906
G1 X123.934 Y123.409 E1.37315
G1 X124.31 Y123.471 E.03519
G1 X124.59 Y123.612 E.02895
G1 X124.806 Y123.805 E.02675
G1 X124.934 Y123.984 E.02032
G1 X125.045 Y124.242 E.02594
G1 X125.059 Y124.341 E.00923
G1 X124.32 Y124.566 F9000
;TYPE:External perimeter
G1 F1200
G1 X124.32 Y139.434 E1.37315
G1 X124.243 Y139.666 E.02258
G1 X124.059 Y139.799 E.02097
G1 X123.316 Y139.82 E.06865
G1 X109.066 Y139.82 E1.31607
G1 X108.965 Y139.807 E.0094
G1 X108.757 Y139.666 E.02321
G1 X108.68 Y139.434 E.02258
G1 X108.68 Y124.566 E1.37315
G1 X108.731 Y124.374 E.01835
G1 X108.911 Y124.212 E.02237
G1 X109.066 Y124.18 E.01462
G1 X123.934 Y124.18 E1.37315
G1 X124.153 Y124.248 E.02118
G1 X124.268 Y124.372 E.01562
G1 X124.289 Y124.45 E.00746
G1 E-3.5 F3600
;WIPE_START
G1 F7200
G1 X124.32 Y124.566 E-.05703
G1 X124.32 Y127.604 E-1.44297
;WIPE_END
G1 X105.077 Y124.462 F9000
G1 E5 F2400
;TYPE:Perimeter
G1 F1200
G1 X105.091 Y124.566 E.00969
G1 X105.091 Y139.434 E1.37315
G1 X105.018 Y139.841 E.03819
G1 X104.86 Y140.129 E.03034
G1 X104.629 Y140.36 E.03017
G1 X104.31 Y140.529 E.03334
G1 X103.934 Y140.591 E.03519
G1 X90.566 Y140.591 E1.23461
G1 X89.066 Y140.591 E.13853
G1 X88.745 Y140.546 E.02994
G1 X88.374 Y140.362 E.03825
G1 X88.195 Y140.197 E.02248
G1 X88.046 Y139.98 E.02431
G1 X87.926 Y139.634 E.03382
G1 X87.909 Y139.434 E.01854
G1 X87.909 Y124.566 E1.37315
G1 X87.944 Y124.281 E.02652
G1 X88.045 Y124.021 E.02576
G1 X88.194 Y123.805 E.02423
G1 X88.559 Y123.526 E.04243
G1 X88.912 Y123.419 E.03407
G1 X89.066 Y123.409 E.01425
G1 X103.934 Y123.409 E1.37315
G1 X104.317 Y123.474 E.03588
G1 X104.598 Y123.618 E.02916
G1 X104.813 Y123.813 E.02681
G1 X104.939 Y123.992 E.02022
G1 X105.047 Y124.248 E.02566
G1 X105.06 Y124.343 E.00886
G1 X104.32 Y124.566 F9000
;TYPE:External perimeter
G1 F1200
G1 X104.32 Y139.434 E1.37315
G1 X104.243 Y139.666 E.02258
G1 X104.059 Y139.799 E.02097
G1 X103.934 Y139.82 E.01171
G1 X90.566 Y139.82 E1.23461
G1 X89.066 Y139.82 E.13853
G1 X88.835 Y139.743 E.02249
G1 X88.726 Y139.616 E.01546
G1 X88.68 Y139.434 E.01734
G1 X88.68 Y124.566 E1.37315
G1 X88.725 Y124.384 E.01731
G1 X88.897 Y124.219 E.02201
G1 X89.066 Y124.18 E.01602
G1 X103.934 Y124.18 E1.37315
G1 X104.156 Y124.25 E.0215
G1 X104.269 Y124.374 E.01549
G1 X104.289 Y124.45 E.00726
G1 E-3.5 F3600
;WIPE_START
G1 F7200
G1 X104.32 Y124.566 E-.05703
G1 X104.32 Y127.604 E-1.44297
;WIPE_END
G1 X107.808 Y143.431 F9000
G1 E5 F2400
;TYPE:Perimeter
G1 F1200
G1 X108.081 Y143.479 E.0256
G1 X108.265 Y143.565 E.01876
G1 X108.504 Y143.749 E.02786
G1 X108.672 Y143.963 E.02513
G1 X108.827 Y144.384 E.04143
G1 X108.841 Y144.566 E.01686
G1 X108.841 Y159.434 E1.37315
G1 X108.779 Y159.81 E.03519
G1 X108.681 Y160.022 E.02157
G1 X108.522 Y160.232 E.02433
G1 X108.296 Y160.417 E.02697
G1 X107.884 Y160.574 E.04072
G1 X107.684 Y160.591 E.01854
G1 X92.816 Y160.591 E1.37315
G1 X92.469 Y160.538 E.03242
G1 X92.167 Y160.392 E.03098
G1 X91.937 Y160.187 E.02845
G1 X91.784 Y159.959 E.02536
G1 X91.663 Y159.53 E.04117
G1 X91.659 Y144.566 E1.38201
G1 X91.713 Y144.214 E.03289
G1 X91.807 Y143.998 E.02176
G1 X91.965 Y143.782 E.02472
G1 X92.192 Y143.591 E.0274
G1 X92.616 Y143.426 E.04202
G1 X92.816 Y143.409 E.01854
G1 X107.684 Y143.409 E1.37315
G1 X107.69 Y143.41 E.00056
G1 X107.878 Y144.232 F9000
;TYPE:External perimeter
G1 F1200
G1 X108.014 Y144.365 E.01757
G1 X108.07 Y144.566 E.01927
G1 X108.07 Y159.434 E1.37315
G1 X108.017 Y159.63 E.01875
G1 X107.888 Y159.762 E.01705
G1 X107.684 Y159.82 E.01959
G1 X92.816 Y159.82 E1.37315
G1 X92.599 Y159.754 E.02095
G1 X92.472 Y159.609 E.0178
G1 X92.43 Y159.434 E.01662
G1 X92.43 Y144.566 E1.37315
G1 X92.48 Y144.376 E.01815
G1 X92.608 Y144.241 E.01718
G1 X92.816 Y144.18 E.02002
G1 X107.684 Y144.18 E1.37315
G1 X107.762 Y144.201 E.00746
G1 E-3.5 F3600
;WIPE_START
G1 F7200
G1 X107.878 Y144.232 E-.05703
G1 X108.014 Y144.365 E-.09036
G1 X108.07 Y144.566 E-.09911
G1 X108.07 Y147.205 E-1.2535
;WIPE_END
G1 X122.994 Y143.462 F9000
G1 E5 F2400
;TYPE:Perimeter
G1 F1200
G1 X123.316 Y143.409 E.03014
G1 X138.184 Y143.409 E1.37315
G1 X138.56 Y143.471 E.03519
G1 X138.879 Y143.64 E.03334
G1 X139.11 Y143.871 E.03017
G1 X139.252 Y144.121 E.02655
G1 X139.341 Y144.566 E.04191
G1 X139.341 Y159.434 E1.37315
G1 X139.302 Y159.735 E.02803
G1 X139.216 Y159.959 E.02216
G1 X139.063 Y160.187 E.02536
G1 X138.833 Y160.392 E.02845
G1 X138.384 Y160.574 E.04475
G1 X138.184 Y160.591 E.01854
G1 X123.316 Y160.591 E1.37315
G1 X122.992 Y160.545 E.03022
G1 X122.704 Y160.417 E.02911
G1 X122.478 Y160.232 E.02697
G1 X122.319 Y160.022 E.02433
G1 X122.172 Y159.611 E.04031
G1 X122.159 Y159.434 E.01639
G1 X122.159 Y144.566 E1.37315
G1 X122.248 Y144.121 E.04191
G1 X122.39 Y143.871 E.02655
G1 X122.621 Y143.64 E.03017
G1 X122.882 Y143.502 E.02727
G1 X123.191 Y144.201 F9000
;TYPE:External perimeter
G1 F1200
G1 X123.934 Y144.18 E.06865
G1 X138.184 Y144.18 E1.31607
G1 X138.416 Y144.257 E.02258
G1 X138.54 Y144.417 E.0187
G1 X138.57 Y144.625 E.01941
G1 X138.57 Y159.434 E1.3677
G1 X138.528 Y159.609 E.01662
G1 X138.401 Y159.754 E.0178
G1 X138.184 Y159.82 E.02095
G1 X123.316 Y159.82 E1.37315
G1 X123.112 Y159.762 E.01959
G1 X122.983 Y159.63 E.01705
G1 X122.93 Y159.434 E.01875
G1 X122.93 Y144.566 E1.37315
G1 X123.007 Y144.334 E.02258
G1 X123.094 Y144.271 E.00992
G1 E-3.5 F3600
;WIPE_START
G1 F7200
G1 X123.191 Y144.201 E-.05682
G1 X123.934 Y144.18 E-.35307
G1 X126.229 Y144.18 E-1.09011
;WIPE_END
G1 X144.325 Y67.324 F9000
G1 E5 F2400
;TYPE:Solid infill
;WIDTH:0.840984
G1 F1200
G1 X146.83 Y69.829 E.3276
G1 X146.83 Y70.921 E.10098
G1 X143.58 Y67.672 E.42496
G1 X142.488 Y67.671 E.10098
G1 X146.83 Y72.014 E.5679
G1 X146.83 Y73.106 E.10098
G1 X141.396 Y67.671 E.71071
G1 X140.304 Y67.671 E.10098
G1 X146.83 Y74.198 E.85352
G1 X146.83 Y75.29 E.10098
G1 X139.211 Y67.671 E.9964
G1 X138.119 Y67.671 E.10098
G1 X146.83 Y76.382 E1.1392
G1 X146.83 Y77.475 E.10107
G1 X137.027 Y67.671 E1.28208
G1 X135.935 Y67.671 E.10098
G1 X146.83 Y78.567 E1.42489
G1 X146.83 Y79.659 E.10098
G1 X134.842 Y67.671 E1.56776
G1 X133.75 Y67.671 E.10098
G1 X146.83 Y80.751 E1.71057
G1 X146.83 Y81.844 E.10107
G1 X132.658 Y67.671 E1.85345
G1 X131.566 Y67.671 E.10098
G1 X146.83 Y82.936 E1.99626
G1 X146.83 Y84.028 E.10098
G1 X130.473 Y67.671 E2.13913
G1 X129.381 Y67.671 E.10098
G1 X146.83 Y85.12 E2.28194
G1 X146.83 Y86.212 E.10098
G1 X128.289 Y67.671 E2.42475
G1 X127.197 Y67.671 E.10098
G1 X146.83 Y87.305 E2.56762
G1 X146.83 Y88.397 E.10098
G1 X126.104 Y67.671 E2.7105
G1 X125.012 Y67.671 E.10098
G1 X146.83 Y89.489 E2.85331
G1 X146.83 Y90.581 E.10098
G1 X123.92 Y67.671 E2.99612
G1 X122.828 Y67.671 E.10098
G1 X146.83 Y91.673 E3.13893
G1 X146.83 Y92.766 E.10107
G1 X121.735 Y67.671 E3.28187
G1 X120.643 Y67.671 E.10098
G1 X146.83 Y93.858 E3.42468
G1 X146.83 Y94.95 E.10098
G1 X119.551 Y67.671 E3.56749
G1 X118.459 Y67.671 E.10098
G1 X146.83 Y96.042 E3.71029
G1 X146.83 Y97.134 E.10098
G1 X117.366 Y67.671 E3.85317
G1 X116.274 Y67.671 E.10098
G1 X146.83 Y98.227 E3.99604
G1 X146.83 Y99.319 E.10098
G1 X115.182 Y67.671 E4.13885
G1 X114.09 Y67.671 E.10098
G1 X146.83 Y100.411 E4.28166
G1 X146.83 Y101.503 E.10098
G1 X112.997 Y67.671 E4.42454
G1 X111.905 Y67.671 E.10098
G1 X146.83 Y102.596 E4.56741
G1 X146.83 Y103.688 E.10098
G1 X110.813 Y67.671 E4.71022
G1 X109.721 Y67.671 E.10098
G1 X146.83 Y104.78 E4.85303
G1 X146.83 Y105.872 E.10098
G1 X108.628 Y67.67 E4.99597
G1 X107.536 Y67.67 E.10098
G1 X146.83 Y106.964 E5.13878
G1 X146.83 Y108.057 E.10107
G1 X124.653 Y85.879 E2.90032
G1 X124.64 Y85.739 E.013
G1 X124.55 Y85.429 E.02985
G1 X124.409 Y85.149 E.02899
G1 X124.208 Y84.885 E.03068
G1 X123.936 Y84.647 E.03342
G1 X123.598 Y84.461 E.03568
G1 X123.237 Y84.356 E.03477
G1 X123.119 Y84.346 E.01095
G1 X106.444 Y67.67 E2.18078
G1 X105.352 Y67.67 E.10098
G1 X122.012 Y84.33 E2.17876
G1 X120.919 Y84.33 E.10107
G1 X104.26 Y67.67 E2.17869
G1 X103.167 Y67.67 E.10107
G1 X119.827 Y84.33 E2.17876
G1 X118.735 Y84.33 E.10098
G1 X102.075 Y67.67 E2.17876
G1 X100.983 Y67.67 E.10098
G1 X117.643 Y84.33 E2.17876
G1 X116.55 Y84.33 E.10107
G1 X99.891 Y67.67 E2.17869
G1 X98.798 Y67.67 E.10107
G1 X115.458 Y84.33 E2.17876
G1 X114.366 Y84.33 E.10098
G1 X97.706 Y67.67 E2.17876
G1 X96.614 Y67.67 E.10098
G1 X113.274 Y84.33 E2.17876
G1 X112.182 Y84.33 E.10098
G1 X95.522 Y67.67 E2.17876
G1 X94.429 Y67.67 E.10107
G1 X111.089 Y84.33 E2.17876
G1 X109.997 Y84.33 E.10098
G1 X93.337 Y67.67 E2.17876
G1 X92.245 Y67.67 E.10098
G1 X108.905 Y84.33 E2.17876
G1 X108.057 Y84.33 E.07842
G1 X107.832 Y84.35 E.02089
G1 X91.153 Y67.67 E2.18131
G1 X90.06 Y67.67 E.10107
G1 X107.055 Y84.665 E2.22257
G1 X106.875 Y84.802 E.02092
G1 X106.65 Y85.06 E.03166
G1 X106.543 Y85.245 E.01976
G1 X88.968 Y67.67 E2.29842
G1 X87.876 Y67.67 E.10098
G1 X106.333 Y86.127 E2.41376
G1 X106.333 Y87.219 E.10098
G1 X86.784 Y67.67 E2.55657
G1 X86.008 Y67.67 E.07176
G1 X85.715 Y67.693 E.02718
G1 X106.333 Y88.311 E2.69637
G1 X106.333 Y89.403 E.10098
G1 X84.938 Y68.009 E2.79792
G1 X84.704 Y68.204 E.02817
G1 X84.557 Y68.369 E.02044
G1 X84.416 Y68.579 E.02339
G1 X106.332 Y90.495 E2.86612
